public/icons/right__submit.svg

<svg width="18" height="20" viewBox="0 0 18 20" fill="none" xmlns="http://www.w3.org/2000/svg">
<path d="M16.928 8.03898L2.40516 0.673712C1.79334 0.363392 1.10213 0.499904 0.601327 1.02979C0.100527 1.55977 -0.108934 2.37635 0.0547532 3.16083L1.34741 9.35658H7.67645C7.96769 9.35658 8.20383 9.64516 8.20383 10.0012C8.20383 10.3571 7.96772 10.6457 7.67645 10.6457H1.34741L0.0547532 16.8414C-0.108934 17.626 0.100491 18.4425 0.601327 18.9725C1.10315 19.5034 1.79443 19.6383 2.40519 19.3286L16.928 11.9633C17.5893 11.628 18 10.8761 18 10.0012C18 9.12618 17.5893 8.37427 16.928 8.03898Z" fill="white"/>
</svg>

<svg xmlns="http://www.w3.org/2000/svg" width="18" height="20" fill="none"><path fill="#fff" d="M16.928 8.039 2.405.674C1.793.364 1.102.5.601 1.03c-.5.53-.71 1.346-.546 2.13l1.292 6.197h6.33c.29 0 .527.288.527.644 0 .356-.236.645-.528.645H1.347L.055 16.84c-.164.785.045 1.601.546 2.131.502.531 1.193.666 1.804.357l14.523-7.366c.661-.335 1.072-1.087 1.072-1.962s-.41-1.627-1.072-1.962Z"/></svg>
